shader_type spatial;
render_mode unshaded, cull_front;

uniform float outline_thickness = 0.05;
uniform vec4 outline_color : source_color = vec4(1.0, 1.0, 1.0, 1.0);
uniform float alpha_multiplier = 0.0;

void vertex() {
	VERTEX += NORMAL * outline_thickness;
}

void fragment() {
	ALBEDO = outline_color.rgb;
	ALPHA = outline_color.a * alpha_multiplier;
}
